// Square amplitude modulation with another square varying in frequency.
// The phase offset can be tweaked to tune the two heard turning points.
Wsqr f200 a1.r0[Wsqr r1.r2[Wsin f0.01 p0.75] p0] t120
