// Produces "drum-like" repeating sound

//Osin t2 f244.4 p+[Osin r(2/3)]
//Q

// Use negative frequency for saw to give it decreasing shape
Osin t10 f44.4 f!(44.4*4)[
	Osaw f(-1/.50) p+[
		Osin f244.4 p+[Osin r(2/3)] a0.1
		Osin f144.4 p+[Osin r(8/3)] a0.1
		Osin f44.4 p+[Osin r(9/3)] a0.1
	]
	Osaw f(-1/1)
]
