// The first two tones overlap, since both have default
// time durations. The default changes from 1 second to
// 2 for the 1st, to fill the time interval to the '|',
// as the 2nd is given a 1 second time, after 1 second.

Wsin f600 /1 Wsin f300 |

// These two tones placed just after also overlap. Here
// the default time for the 2nd starts out at 2 seconds
// (because that time was explicitly set for the first)
// but is reduced by the 1 second time shift to just 1.

Wsin f400 t2 /1 Wsin f200
