// Play each wave type in sequence,
// using the order in which they are
// declared in the wave module
Wsin f200 t2
; wtri t2
; wsrs t2
; wsqr t2
; wean t2
; wcat t2
; weto t2
; wpar t2
; wmto t2
; wsaw t2
; whsi t2
; wspa t2 | /1

// For comparison, sequence of 'sin' and types with assymmetric shapes,
// in order of increasing brightness:
// ean, spa, par, hsi, ssr, mto, cat, eto, saw
Wsin f200 t2
; wean t2
; wspa t2
; wpar t2
; whsi t2
; wcat t2
; wmto t2
; weto t2
; wsaw t2 |
